X: 41234
T: Trowie Burn, The
R: waltz
M: 3/4
K: Eminor
G2A Bed|BAG A2c|{Bc}(2BA (2AG/A/|{Bc}B2A (2G/E3/2|
G2A Bed|BAG Bcd|(2eE {Bc}B2A|(2G/E3/2 E3:|g2a baf|
{Bc}(2BA AGA|{Bc}B2A (2G/E3/2|g2a baf|
(2eE {Bc}B2A|(2G/E3/2 E3|g2a baf|
{Bc}(2BA AGA|{Bc}B2A (2G/E3/2|G2A Bed|
BAG Bcd|(2eE {Bc}B2A|(2G/E3/2 E3||

